X:18371
T:Wallach moor
R:Jig
O:England
M:6/8
N:from a printed tunebook owned by the Winders
A:Lancashire
B:Winder
K:Bm
F | BcB f2e | dcB c2F | BcB c2F | BcB c2F | \
BcB f2e | dcB ^AcF | B2c dec | B3-B2 :|*
 |:A | ded a2g | fed ceA | dcd e2A | dcd ecA | \
ded a2g | fed ce^A | B2c dec | B3-B2 :|**


